X:1
T:The Priest / Is It the Priest You Want?
M:12/8
L:1/8
Q:350
S:Bothy Wind2Sun Trk10
R:slide
Z:B.Black
K:G
ge|: "G"dBd3 B d2B Bge| dBd dB "D7"e3 A Age|
 "G"dBA BAB BAB g3|1 "D7"BAB ged "g"B2G G2 :|2
 "D7"BAB ged "G"B2G G3 ||
"G"gfg "Am"eaf "G"g2e "C"e2d| "D7"e2a aga b2e e2f|
"G"gbg "D7"faf "C"g2e e2d| "D7"BAB "C"ged "G"B2G G3 :|
